assets/images/simple-illustrations/simple-illustration__house.svg

<svg xmlns="http://www.w3.org/2000/svg" width="48" height="48" fill="none" viewBox="0 0 48 48"><path fill="#722B03" d="M31.8752 26.6328L45.0079 26.2339V23.4267H32.3768L16.2343 11.2941L2.99878 23.6261L5.00526 25.832L16.5335 15.3041L31.8752 26.6328Z"/><path fill="#F25730" d="M5.73991 20.852L10.0188 16.8421H5.60693L5.73991 20.852Z"/><path fill="#FFFAF0" d="M5.33777 26.2007V36.9614H44.2405V26.3337H31.8753L16.5336 15.3041L5.33777 26.2007Z"/><path fill="#F25730" d="M14.3879 28.9444V36.6983H20.0024V29.0139L14.3879 28.9444Z"/><path fill="#FFED8F" d="M18.9421 32.6825C19.2559 32.6825 19.5102 32.4281 19.5102 32.1144C19.5102 31.8006 19.2559 31.5463 18.9421 31.5463C18.6284 31.5463 18.374 31.8006 18.374 32.1144C18.374 32.4281 18.6284 32.6825 18.9421 32.6825Z"/><path fill="#FFED8F" d="M19.3771 20.2507H15.0317V25.5298H19.3771V20.2507Z"/><path fill="#FFED8F" d="M12.025 28.8054H7.67969V34.0845H12.025V28.8054Z"/><path fill="#FFED8F" d="M27.3966 29.0079H23.0513V34.287H27.3966V29.0079Z"/><path fill="#D18000" d="M41.9012 29.9417H32.6757V36.8918H41.9012V29.9417Z"/><path stroke="#002140" stroke-linecap="round" stroke-linejoin="round" stroke-width=".857" d="M45.1016 23.3301L32.4009 23.2968L16.3582 11.3667L2.82349 23.7652L5.12912 25.9379L16.4941 15.1108L31.7331 26.4063L45.168 26.2733L45.1016 23.3301Z"/><path stroke="#002140" stroke-linecap="round" stroke-linejoin="round" stroke-width=".857" d="M5.12952 25.9377V36.9008H44.3676V26.539"/><path stroke="#002140" stroke-linecap="round" stroke-linejoin="round" stroke-width=".857" d="M32.5341 36.632V29.8813H41.9591V36.5655"/><path stroke="#002140" stroke-linecap="round" stroke-linejoin="round" stroke-width=".857" d="M32.6036 32.3561H41.6932"/><path stroke="#002140" stroke-linecap="round" stroke-linejoin="round" stroke-width=".857" d="M32.6036 34.6285H41.6932"/><path stroke="#002140" stroke-linecap="round" stroke-linejoin="round" stroke-width=".857" d="M14.6539 36.2663V28.9112H20.2684V36.1817"/><path stroke="#002140" stroke-linecap="round" stroke-linejoin="round" stroke-width=".857" d="M19.0326 32.9876C19.4198 32.9876 19.7337 32.6737 19.7337 32.2865C19.7337 31.8994 19.4198 31.5855 19.0326 31.5855C18.6454 31.5855 18.3315 31.8994 18.3315 32.2865C18.3315 32.6737 18.6454 32.9876 19.0326 32.9876Z"/><path stroke="#002140" stroke-linecap="round" stroke-linejoin="round" stroke-width=".857" d="M11.9495 28.745H7.60413V34.1601H11.9495V28.745Z"/><path stroke="#002140" stroke-linecap="round" stroke-linejoin="round" stroke-width=".857" d="M27.69 28.745H23.3446V34.1601H27.69V28.745Z"/><path stroke="#002140" stroke-linecap="round" stroke-linejoin="round" stroke-width=".857" d="M19.5341 20.2235H15.1887V25.6386H19.5341V20.2235Z"/><path stroke="#002140" stroke-linecap="round" stroke-linejoin="round" stroke-width=".857" d="M5.59753 20.8581V16.7817H10.0094"/><path stroke="#002140" stroke-linecap="round" stroke-linejoin="round" stroke-width=".857" d="M5.93274 18.5857H6.73349"/></svg>

<svg xmlns="http://www.w3.org/2000/svg" width="48" height="48" fill="none" viewBox="0 0 48 48"><path fill="#722b03" d="m31.875 26.633 13.133-.4v-2.806H32.377L16.234 11.294 3 23.626l2.006 2.206 11.529-10.528z"/><path fill="#f25730" d="m5.74 20.852 4.279-4.01H5.607z"/><path fill="#fffaf0" d="M5.338 26.2v10.761H44.24V26.334H31.875l-15.341-11.03z"/><path fill="#f25730" d="M14.388 28.944v7.754h5.614v-7.684z"/><path fill="#ffed8f" d="M18.942 32.682a.568.568 0 1 0 0-1.136.568.568 0 0 0 0 1.136M19.377 20.25h-4.345v5.28h4.345zM12.025 28.805H7.68v5.28h4.345zM27.397 29.008H23.05v5.279h4.346z"/><path fill="#d18000" d="M41.901 29.942h-9.225v6.95H41.9z"/><path stroke="#002140" stroke-linecap="round" stroke-linejoin="round" stroke-width=".857" d="M45.102 23.33 32.4 23.297l-16.043-11.93L2.823 23.765l2.306 2.173L16.494 15.11l15.24 11.295 13.434-.133z"/><path stroke="#002140" stroke-linecap="round" stroke-linejoin="round" stroke-width=".857" d="M5.13 25.938V36.9h39.238V26.539"/><path stroke="#002140" stroke-linecap="round" stroke-linejoin="round" stroke-width=".857" d="M32.534 36.632v-6.75h9.425v6.683M32.604 32.356h9.09M32.604 34.629h9.09M14.654 36.266v-7.355h5.614v7.27"/><path stroke="#002140" stroke-linecap="round" stroke-linejoin="round" stroke-width=".857" d="M19.033 32.988a.701.701 0 1 0 0-1.403.701.701 0 0 0 0 1.403M11.95 28.745H7.604v5.415h4.346zM27.69 28.745h-4.345v5.415h4.345zM19.534 20.224H15.19v5.415h4.345zM5.598 20.858v-4.076h4.411M5.933 18.586h.8"/></svg>
